tools/download-figma-icons/icons/outlined-medium/security.svg

<svg width="24" height="24" viewBox="0 0 24 24" fill="none" xmlns="http://www.w3.org/2000/svg">
<path fill-rule="evenodd" clip-rule="evenodd" d="M19.2417 13.8646C19.2417 15.6848 18.4309 17.3716 17.0172 18.4943L12.2458 22.2908L7.4743 18.4936C6.06057 17.3716 5.24982 15.6848 5.24982 13.8646V3.59046C8.27454 3.48696 9.36353 2.75797 10.2508 2.16397L10.2512 2.16366C10.8487 1.76409 11.2433 1.50023 12.2458 1.50023C13.2472 1.50023 13.6413 1.76357 14.237 2.16172L14.2392 2.16322C15.1257 2.75797 16.214 3.48771 19.2417 3.59046V13.8646ZM19.9917 2.10247C16.8425 2.10247 15.9027 1.47323 15.074 0.917485L15.0725 0.916528C14.3995 0.46608 13.7035 0.000244138 12.2458 0.000244138C10.7878 0.000244138 10.0903 0.466739 9.41678 0.917485C8.58654 1.47398 7.6468 2.10247 4.49983 2.10247C4.08584 2.10247 3.74984 2.43847 3.74984 2.85247V13.8646C3.74984 16.1446 4.76758 18.2596 6.54056 19.6673L11.7793 23.8365C11.9158 23.9453 12.0808 24 12.2458 24C12.4115 24 12.5765 23.9453 12.713 23.8365L17.9502 19.668C19.7247 18.2596 20.7417 16.1446 20.7417 13.8646V2.85247C20.7417 2.43847 20.4057 2.10247 19.9917 2.10247ZM14.0785 8.03897V9.4572H10.4125V8.03897C10.4125 7.02798 11.2345 6.20673 12.2455 6.20673C13.2565 6.20673 14.0785 7.02798 14.0785 8.03897ZM15.184 15.6896V10.9564H9.30706V15.6896H15.184ZM8.91256 8.03896V9.4572H8.55707C8.14307 9.4572 7.80707 9.79245 7.80707 10.2072V16.4396C7.80707 16.8544 8.14307 17.1896 8.55707 17.1896H15.934C16.348 17.1896 16.684 16.8544 16.684 16.4396V10.2072C16.684 9.79245 16.348 9.4572 15.934 9.4572H15.5785V8.03896C15.5785 6.20148 14.083 4.70675 12.2455 4.70675C10.408 4.70675 8.91256 6.20148 8.91256 8.03896ZM11.4956 12.8627C11.4956 12.4479 11.8316 12.1127 12.2456 12.1127C12.6596 12.1127 12.9956 12.4479 12.9956 12.8627V13.7844C12.9956 14.1992 12.6596 14.5344 12.2456 14.5344C11.8316 14.5344 11.4956 14.1992 11.4956 13.7844V12.8627Z" fill="black"/>
</svg>

<svg width="24" height="24" viewBox="0 0 24 24" fill="none" xmlns="http://www.w3.org/2000/svg"><path fill-rule="evenodd" clip-rule="evenodd" d="M19.242 13.865c0 1.82-.811 3.507-2.225 4.63l-4.771 3.796-4.772-3.797a5.872 5.872 0 0 1-2.224-4.63V3.59c3.025-.103 4.114-.832 5-1.426h.001c.598-.4.992-.664 1.995-.664 1.001 0 1.395.264 1.991.662l.002.001c.887.595 1.975 1.325 5.003 1.427v10.275Zm.75-11.763c-3.15 0-4.09-.629-4.918-1.185h-.002C14.4.467 13.704 0 12.246 0s-2.156.467-2.83.917c-.83.557-1.77 1.185-4.916 1.185a.75.75 0 0 0-.75.75v11.013a7.365 7.365 0 0 0 2.79 5.802l5.24 4.17a.747.747 0 0 0 .933 0l5.237-4.169a7.363 7.363 0 0 0 2.792-5.803V2.852a.75.75 0 0 0-.75-.75ZM14.078 8.04v1.418h-3.665V8.04a1.834 1.834 0 0 1 3.665 0Zm1.106 7.65v-4.733H9.307v4.734h5.877ZM8.913 8.04v1.418h-.356a.75.75 0 0 0-.75.75v6.233c0 .414.336.75.75.75h7.377a.75.75 0 0 0 .75-.75v-6.233a.75.75 0 0 0-.75-.75h-.355V8.04a3.337 3.337 0 0 0-3.334-3.332A3.336 3.336 0 0 0 8.913 8.04Zm2.583 4.824a.75.75 0 1 1 1.5 0v.921a.75.75 0 1 1-1.5 0v-.921Z" fill="currentColor"/></svg>
